icons/album.svg

<svg width="24" height="24" viewBox="0 0 24 24" fill="none" xmlns="http://www.w3.org/2000/svg">
<path d="M2 8C2 4.68629 4.68629 2 8 2H16C19.3137 2 22 4.68629 22 8V16C22 19.3137 19.3137 22 16 22H8C4.68629 22 2 19.3137 2 16V8Z" stroke="black" stroke-width="2" stroke-linecap="round" stroke-linejoin="round"/>
<path d="M12 2.5V9.3342C12 9.54734 12 9.65391 12.0437 9.70865C12.0817 9.75625 12.1393 9.78394 12.2002 9.78387C12.2703 9.7838 12.3535 9.71723 12.5199 9.58408L14.3001 8.15992C14.3714 8.10285 14.4071 8.07431 14.4467 8.06337C14.4816 8.05371 14.5184 8.05371 14.5533 8.06337C14.5929 8.07431 14.6286 8.10285 14.6999 8.15992L16.4801 9.58408C16.6465 9.71723 16.7297 9.7838 16.7998 9.78387C16.8607 9.78394 16.9183 9.75625 16.9563 9.70865C17 9.65391 17 9.54734 17 9.3342V2.5" stroke="black" stroke-width="2" stroke-linecap="round" stroke-linejoin="round"/>
</svg>

<svg xmlns="http://www.w3.org/2000/svg" width="24" height="24" viewBox="0 0 24 24" fill="none" stroke="currentColor" stroke-width="2" stroke-linecap="round" stroke-linejoin="round">
<path d="M2 8a6 6 0 0 1 6-6h8a6 6 0 0 1 6 6v8a6 6 0 0 1-6 6H8a6 6 0 0 1-6-6z"/><path d="M12 2.5v6.834c0 .213 0 .32.044.375a.2.2 0 0 0 .156.075c.07 0 .154-.067.32-.2L14.3 8.16a.5.5 0 0 1 .147-.097.2.2 0 0 1 .106 0c.04.011.076.04.147.097l1.78 1.424c.166.133.25.2.32.2a.2.2 0 0 0 .156-.075C17 9.654 17 9.547 17 9.334V2.5"/>
</svg>
